brandFactory_export/2.Regular/Trebol_2Regular.svg

<?xml version="1.0" encoding="UTF-8"?>
<svg width="24px" height="24px" viewBox="0 0 24 24" version="1.1" xmlns="http://www.w3.org/2000/svg" xmlns:xlink="http://www.w3.org/1999/xlink">
    <title>2.Regular/Trebol_2Regular</title>
    <g id="Symbols" stroke="none" stroke-width="1" fill="none" fill-rule="evenodd">
        <g id="2.Regular/Trebol_2Regular" fill="#5CB615" fill-rule="nonzero">
            <path d="M10.8403361,18.1008403 C10.3058824,19.3008403 9.50252101,20.1142857 8.74621849,20.2252101 C8.20168067,20.302521 7.6302521,20.0268908 7.06554622,19.394958 L6.86386555,19.1697479 L6.5512605,19.1428571 C5.68403361,19.0689076 5.11932773,18.7932773 4.87058824,18.3193277 C4.52773109,17.6638655 4.75966387,16.5680672 5.4789916,15.4588235 C6.3697479,14.0705882 9.31428571,12.5142857 10.8336134,11.8453782 C11.1428571,13.4084034 11.5159664,16.6016807 10.8403361,18.1008403 M3.77815126,10.3663866 C2.5210084,9.85882353 1.66722689,9.09243697 1.54957983,8.3697479 C1.46554622,7.8487395 1.75798319,7.31092437 2.41680672,6.77310924 L2.65546218,6.57815126 L2.68235294,6.28235294 C2.75966387,5.45546218 3.05210084,4.91764706 3.54621849,4.68235294 C3.75462185,4.58151261 4.01008403,4.53109244 4.29243697,4.53109244 C4.93781513,4.53109244 5.73781513,4.78319328 6.54789916,5.2605042 C8.00336134,6.10756303 9.63697479,8.91428571 10.3361345,10.3630252 C8.69915966,10.6554622 5.3512605,11.0084034 3.77815126,10.3663866 M11.8890756,3.63697479 C12.4235294,2.43697479 13.2268908,1.62352941 13.9831933,1.5092437 C14.0436975,1.50252101 14.107563,1.49579832 14.1680672,1.49579832 C14.6588235,1.49579832 15.1596639,1.77815126 15.6605042,2.3394958 L15.8621849,2.56470588 L16.1747899,2.59159664 C17.0420168,2.66554622 17.6067227,2.94453782 17.8554622,3.41512605 C18.1983193,4.07058824 17.9663866,5.16638655 17.2470588,6.2789916 C16.3596639,7.66722689 13.4151261,9.22352941 11.8957983,9.89243697 C11.589916,8.32605042 11.2168067,5.13613445 11.8890756,3.63697479 M18.9512605,11.3680672 C20.2084034,11.8756303 21.0655462,12.6420168 21.1798319,13.3647059 C21.2638655,13.8890756 20.9714286,14.4268908 20.3092437,14.9647059 L20.0705882,15.1563025 L20.0403361,15.4554622 C19.9630252,16.2789916 19.6739496,16.8168067 19.1764706,17.0554622 C18.4941176,17.3815126 17.3411765,17.1630252 16.1747899,16.4739496 C14.7193277,15.6268908 13.0857143,12.8201681 12.3865546,11.3680672 C14.0336134,11.0823529 17.3815126,10.7260504 18.9512605,11.3680672 M16.2352941,21.1260504 C18.2554622,22.7462185 20.5142857,23.6571429 22.4907563,23.6571429 C22.5815126,23.6571429 22.6722689,23.6537815 22.7596639,23.6504202 C22.9512605,23.6403361 23.1327731,23.5798319 23.2907563,23.4789916 C23.6235294,23.2705882 23.7210084,22.8302521 23.512605,22.5008403 C23.502521,22.487395 23.4957983,22.4739496 23.4857143,22.4605042 C23.2739496,22.1815126 22.907563,22.0739496 22.5781513,22.1915966 C20.9781513,22.2386555 19.005042,21.4352941 17.2235294,20.0033613 L17.1394958,19.9394958 C16.1546218,19.1428571 15.2941176,18.2016807 14.5915966,17.1495798 C14.8504202,17.3747899 15.1092437,17.5731092 15.3747899,17.7277311 C16.4369748,18.3529412 17.492437,18.6722689 18.4268908,18.6722689 C18.9512605,18.6722689 19.4386555,18.5714286 19.8689076,18.3663866 C20.5176471,18.0571429 21.3142857,17.3747899 21.5394958,15.8823529 C22.6857143,14.8403361 22.810084,13.8285714 22.6991597,13.1462185 C22.497479,11.8890756 21.3512605,10.7495798 19.5529412,10.0235294 C18.5378151,9.61008403 17.0890756,9.51596639 15.6705882,9.56302521 C16.8605042,8.82016807 17.9865546,7.94285714 18.5579832,7.0487395 C19.5831933,5.46554622 19.8285714,3.90252101 19.2302521,2.76638655 C18.9042017,2.14789916 18.1915966,1.38823529 16.6218487,1.17310924 C15.5327731,0.0739495798 14.4672269,-0.043697479 13.7512605,0.0638655462 C12.4336134,0.258823529 11.2403361,1.3512605 10.4773109,3.06218487 C10.0436975,4.02689076 9.94621849,5.40840336 9.99663866,6.76302521 C9.21344538,5.6302521 8.29915966,4.55462185 7.35798319,4.01008403 C5.69411765,3.03529412 4.05714286,2.8 2.86386555,3.37142857 C2.21512605,3.68403361 1.41848739,4.36302521 1.19327731,5.85546218 C0.043697479,6.89747899 -0.0773109244,7.9092437 0.0336134454,8.59159664 C0.235294118,9.8487395 1.38487395,10.9882353 3.17647059,11.7142857 C4.03361345,12.0638655 5.20672269,12.1882353 6.41008403,12.1882353 C6.62521008,12.1882353 6.84369748,12.1815126 7.06218487,12.1747899 C5.87226891,12.9210084 4.74285714,13.7983193 4.17142857,14.692437 C3.14621849,16.2756303 2.90420168,17.8386555 3.50252101,18.9747899 C3.82857143,19.5932773 4.54453782,20.3529412 6.11092437,20.5647059 C7.00504202,21.4621849 7.8789916,21.7008403 8.56134454,21.7008403 C8.71260504,21.7008403 8.85042017,21.6907563 8.98151261,21.6705882 C10.2991597,21.4756303 11.4957983,20.3831933 12.2554622,18.6722689 C12.4739496,18.1882353 12.605042,17.5932773 12.6789916,16.9579832 C13.5630252,18.5344538 14.7462185,19.9294118 16.1579832,21.0588235" id="Trebol_2Regular"></path>
        </g>
    </g>
</svg>

<svg width="24" height="24" viewBox="0 0 24 24" xmlns="http://www.w3.org/2000/svg"><path d="M10.84 18.1c-.534 1.2-1.337 2.014-2.094 2.125-.544.078-1.116-.198-1.68-.83l-.202-.225-.313-.027c-.867-.074-1.432-.35-1.68-.824-.343-.655-.111-1.75.608-2.86.89-1.388 3.835-2.945 5.355-3.614.309 1.563.682 4.757.006 6.256m-7.062-7.735C2.521 9.86 1.668 9.092 1.55 8.37c-.084-.521.208-1.06.867-1.597l.238-.195.027-.296c.078-.827.37-1.364.864-1.6.209-.1.464-.15.746-.15.646 0 1.446.251 2.256.729 1.455.847 3.089 3.653 3.788 5.102-1.637.292-4.985.645-6.558.003m8.111-6.729c.535-1.2 1.338-2.013 2.094-2.128a1.71 1.71 0 01.185-.013c.49 0 .992.282 1.493.843l.201.226.313.027c.867.074 1.432.353 1.68.823.343.656.111 1.751-.608 2.864-.887 1.388-3.832 2.945-5.351 3.613-.306-1.566-.68-4.756-.007-6.255m7.062 7.731c1.257.508 2.115 1.274 2.229 1.997.084.524-.209 1.062-.87 1.6l-.24.191-.03.3c-.077.823-.366 1.36-.864 1.6-.682.326-1.835.107-3.001-.582-1.456-.847-3.09-3.654-3.788-5.106 1.647-.286 4.995-.642 6.564 0m-2.716 9.758c2.02 1.62 4.28 2.531 6.256 2.531.09 0 .181-.003.269-.007.191-.01.373-.07.53-.171a.709.709 0 00.223-.978c-.01-.014-.017-.027-.027-.04a.8.8 0 00-.908-.27c-1.6.048-3.573-.756-5.354-2.188l-.085-.064a12.569 12.569 0 01-2.547-2.79c.258.226.517.424.783.579 1.062.625 2.117.944 3.052.944.524 0 1.012-.1 1.442-.306.649-.309 1.445-.991 1.67-2.484 1.147-1.042 1.271-2.053 1.16-2.736-.202-1.257-1.348-2.396-3.146-3.122-1.015-.414-2.464-.508-3.882-.461 1.19-.743 2.316-1.62 2.887-2.514 1.025-1.583 1.27-3.146.672-4.283-.326-.618-1.038-1.378-2.608-1.593-1.09-1.1-2.155-1.217-2.87-1.11-1.318.196-2.512 1.288-3.275 3-.433.964-.53 2.345-.48 3.7C9.213 5.63 8.299 4.555 7.358 4.01c-1.664-.975-3.3-1.21-4.494-.639-.649.313-1.446.992-1.67 2.484C.043 6.897-.078 7.91.033 8.592c.201 1.257 1.35 2.396 3.142 3.122.858.35 2.03.474 3.234.474.215 0 .434-.006.652-.013-1.19.746-2.32 1.623-2.89 2.517-1.026 1.584-1.268 3.147-.67 4.283.327.618 1.043 1.378 2.609 1.59.894.897 1.768 1.136 2.45 1.136.152 0 .29-.01.42-.03 1.318-.195 2.515-1.288 3.274-2.999.219-.484.35-1.079.424-1.714a14.068 14.068 0 003.479 4.1" fill="#5CB615" fill-rule="nonzero"/></svg>
